X:1
T:James Gibb editions
T:Domine labia mea aperies -Lasso
T:#
%%score [ 1 2 3 4 ]
L:1/8
Q:1/4=108
M:4/4
K:Bb
V:1 treble nm="Soprano" snm="S"
V:2 treble nm="Alto" snm="A"
V:3 treble-8 nm="Tenor" snm="T"
V:4 bass nm="Bass" snm="B"
V:1
"^Domine labia mea aperies""^Orlando di Lasso\n(1532-94)" z8 | z8 | z4 (B4- | B2 A G e4- | %4
w: ||Do\-||
 e2) d2 d4 | G6 G2 |[M:4/4] G4 F4- | F4 F4- | F2 f4 (e2- | e2 d3 c B2- | B2) A2 B4- | B8 | z8 | %13
w: * mi- ne,|la- bi-|a me\-|* a|* a- pe\-||* ri es,|||
 e4 d2 (e2- | e d/ c/ B3 c d2) | c8 | z2 d2 =B2 B2 | c8 | F4 z2 G2 |[M:4/4] =E2 E2 F4 | %20
w: et os me\-||um|an- nun- ti-|a-|bit, an-|nun- ti- a-|
 F2 f2 d2 d2 | e2 c2 z4 | z2 (B3 A B c | d2) B2 F2 F2 | z2 (B3 ABc | d2 G2 z4 | z2 (G3 F G A | %27
w: bit, an- nun- ti-|a- bit|lau\- * * *|* dem tu- am,|lau\- * * *|* dem,|lau\- * * *|
 B4) f4 | z2 B3 ABc | d4) d4 | z2 (B3 ABc | d3 c/B/ A F B2) | A2 (B3 A/G/ A2) | B2 (G3 FGA | %34
w: * dem,|lau\- * * *|* dem,|lau\- * * *||dem tu\- * * *|am, lau\- * * *|
[Q:1/4=107] B2)[Q:1/4=105] G2[Q:1/4=102] (B4- |[Q:1/4=99] B4[Q:1/4=96] e4- | %36
w: * dem tu\-||
[Q:1/4=94] e2[Q:1/4=93] d[Q:1/4=92]c)[Q:1/4=92] d4 |] %37
w: * * * am.|
V:2
 (F6 E D | B6) G2 | F6 (G2- | G2 FE B2) A2 | B4 z2 B,2- | B,2 B,2 B,4 |[M:4/4] z2 (E4 D C | %7
w: Do\- * *|* mi-|ne, Do\-|* * * * mi-|ne, la\-|* bi- a|me\- * *|
 D4) C4- | C4 G4- | G4 F2 F2 | F8 | z2 G2 F2 (G2- | GF/E/ D E F4) | G2 (G3 F E F | G4) F2 (BA | %15
w: * a,|* a\-|* pe- ri-|es,|et os me\-||um, et * * *|* os me\- *|
 G F G2) A4- | A4 z2 G2 | =E2 E2 (F3 _E | D C B, C D4) |[M:4/4] G4 z2 c2 | A2 A2 B4 | G8 | %22
w: * * * um|* an-|nun- ti- a\- *||bit, an-|nun- ti- a-|bit|
 z2 (G3 F G A | B2) F2 z4 | z2 (G3 FGA | B2 E2 D2 D2 | z2 (E3 D E F | G2) F2 F4 | B,2 D3 CDE | %29
w: lau\- * * *|* dem,|lau\- * * *|* dem tu- am,|lau\- * * *|* dem tu-|am, lau\- * * *|
 F2) G2 D4 | G,2 (G3 FGA | B2 A G F2 ED | F4) (F3 E | D2) E2 B,4- | B,4 (E3 D | E F G3) G G2 | %36
w: * dem tu-|am, lau\- * * *||* dem *|* tu- am,|* lau\- *|* * * dem tu-|
 F8 |] %37
w: am.|
V:3
 z4 (B4- | B2 A G e4- | e2) d2 d4 | ((g6 fe | g2)) f2 f4 | e6 e2 |[M:4/4][K:treble-8] B8 | %7
w: Do\-||* mi- ne,|Do\- * *|* mi- ne,|la- bi-|a|
 z2 (B4 A G | A3 B c4) | B2 (B3 A d2) | c2 c2 d4 | e4 d2 (e2- | ed/c/ B3 c d2) | c4 z2 g2 | %14
w: me\- * *||a a\- * *|pe- ri- es|et os me\-||um, et|
 c2 (d3 e f2- | f=e/d/ e2) f4 | f4 d2 d2 | g4 c4 | z2 d2 =B2 B2 |[M:4/4][K:treble-8] c4 c4 | %20
w: os me\- * *|* * * * um|an- nun- ti-|a- bit,|an- nun- ti-|a- bit,|
 z f2 d2 d g2 | c2 (e3 d e f | g2) e2 e4 | B2 (d3 cde | f2) d2 e2 e2 | z2 (B3 A B c | %26
w: an- nun- ti- a-|bit lau\- * * *|* dem tu-|am, lau\- * * *|* dem tu- am,|lau\- * * *|
 d2) B2 c2 c2 | z2 (d3 cde | f2) g2 f4 | B2 (B3 ABc | d4) e4 | (f3 e/d/ c d B2) | d4 c4 | %33
w: * dem tu- am,|lau\- * * *|* dem tu-|am, lau\- * * *|* dem,|lau\- * * * * *|dem tu-|
 B4 z2 (e2- | edef g4- | g2) e2 B4 | B8 |] %37
w: am, lau\-||* dem tu-|am.|
V:4
 z8 | z8 | (B,6 A, G, | E6) C2 | B,8 | E,6 E,2 |[M:4/4] E,4 B,,4- | B,,4 F,4- | F,4 (C,4 | %9
w: ||Do\- * *|* mi-|ne,|la- bi-|a me\-|* a|* a\-|
 G,4) (D,3 E, | F,2) F,2 B,4 | z8 | z8 | z2 C2 B,2 (C2- | CB,/A,/ G, A, B,4) | C4 z2 F,2 | %16
w: * pe\- *|* ri- es,|||et os me\-||um an-|
 D,2 D,2 G,4 | C,2 C2 A,2 A,2 | (B,3 A, G,4) |[M:4/4] C,2 C2 A,2 A,2 | D4 G,4 | z2 (C3 B, C D | %22
w: nun- ti- a-|bit, an- nun- ti-|a\- * *|bit, an- nun- ti-|a- bit|lau\- * * *|
 E4) E,4 | z2 (B,3 A,B,C | D2) G,2 E,2 E,2 | z2 (G,3 F, G, A, | B,2) E,2 C,2 C,2 | z2 (B,3 A,B,C | %28
w: * dem|lau\- * * *|* dem tu- am,|lau\- * * *|* dem tu- am,|lau\- * * *|
 D2) G,2 z4 | z2 (G,3 F,G,A, | B, A, G, F, E,3 D,/C,/ | B,,C,D,E, F, D, G,2) | F,4 F,4 | %33
w: * dem,|lau\- * * *|||dem tu-|
 G,2 (E,3 D,E,F, | G,2) (E,3 F, G,2) | E,8 | B,,8 |] %37
w: am, lau\- * * *|* dem * *|tu-|am.|

